X:0587
M:6/8
L:1/8
Q:3/8=120
K:D
   FDD A2G|FGA B2A|ded Bcd|ecA A2B/c/|ded cAc|BgB A2F|GAG EAG|FDD D3:|

